packages/appstore/src/assets/svgs/wallet/litecoin-light.svg

<svg width="128" height="80" viewBox="0 0 128 80" fill="none" xmlns="http://www.w3.org/2000/svg">
<path d="M28.0751 26C25.2907 26 22.5689 26.8257 20.2538 28.3726C17.9386 29.9195 16.1342 32.1182 15.0687 34.6906C14.0032 37.263 13.7244 40.0936 14.2676 42.8245C14.8108 45.5553 16.1516 48.0638 18.1204 50.0326C20.0893 52.0015 22.5977 53.3423 25.3286 53.8855C28.0594 54.4287 30.8901 54.1499 33.4625 53.0843C36.0349 52.0188 38.2336 50.2144 39.7805 47.8993C41.3274 45.5842 42.153 42.8623 42.153 40.078C42.153 38.2292 41.7889 36.3986 41.0814 34.6906C40.3739 32.9826 39.337 31.4306 38.0297 30.1233C36.7224 28.8161 35.1705 27.7791 33.4625 27.0716C31.7544 26.3641 29.9238 26 28.0751 26V26ZM28.3032 40.5411L26.8389 45.4824H34.6713C34.7336 45.4825 34.795 45.4972 34.8507 45.5251C34.9064 45.5531 34.9548 45.5936 34.9921 45.6435C35.0294 45.6933 35.0546 45.7512 35.0657 45.8125C35.0769 45.8738 35.0736 45.9368 35.0562 45.9966L34.3751 48.3429C34.3426 48.455 34.2745 48.5535 34.1811 48.6235C34.0878 48.6936 33.9742 48.7313 33.8575 48.7311H21.8942L23.917 41.8999L21.6797 42.581L22.1735 40.9838L24.4142 40.3027L27.2544 30.7063C27.2856 30.5938 27.3527 30.4947 27.4456 30.424C27.5384 30.3533 27.6519 30.3149 27.7686 30.3147H30.7994C30.8616 30.3144 30.923 30.3287 30.9787 30.3562C31.0345 30.3837 31.0831 30.4238 31.1208 30.4734C31.1584 30.5229 31.184 30.5804 31.1956 30.6415C31.2072 30.7026 31.2045 30.7656 31.1876 30.8255L28.8038 38.9406L31.0412 38.2595L30.561 39.8839L28.3032 40.5411Z" fill="#A5A8A9"/>
<path d="M54.8319 30.1595C55.0433 30.1386 55.2561 30.1809 55.4434 30.281C55.6935 30.4147 55.8805 30.642 55.9635 30.9132C56.0464 31.1845 56.0186 31.4775 55.8861 31.7283C55.7868 31.916 55.6341 32.0701 55.4472 32.171C55.2603 32.2719 55.0477 32.315 54.8363 32.2949C54.6248 32.2748 54.4241 32.1924 54.2596 32.0582C54.095 31.9239 53.974 31.7439 53.9119 31.5408C53.8498 31.3377 53.8493 31.1207 53.9106 30.9174C53.9719 30.7141 54.0922 30.5335 54.2562 30.3986C54.4202 30.2637 54.6206 30.1805 54.8319 30.1595Z" fill="#4D4D4E"/>
<path d="M49.4159 30.2742H50.2945C50.4648 30.2742 50.5669 30.3491 50.5397 30.5466L48.2546 48.4761C48.255 48.5139 48.2472 48.5514 48.2318 48.5859C48.2163 48.6204 48.1936 48.6512 48.1651 48.6761C48.1366 48.701 48.1031 48.7195 48.0668 48.7302C48.0306 48.741 47.9924 48.7437 47.955 48.7383H47.0832C46.9027 48.7383 46.8448 48.6464 46.8652 48.4761L49.1196 30.5398C49.1214 30.5028 49.1304 30.4665 49.1463 30.4331C49.1622 30.3996 49.1846 30.3697 49.2121 30.3449C49.2397 30.3202 49.2719 30.3012 49.3069 30.2891C49.3419 30.2769 49.3789 30.2719 49.4159 30.2742Z" fill="#4D4D4E"/>
<path d="M53.9962 35.4436H54.8646C55.0553 35.4436 55.1132 35.5355 55.1064 35.7126L53.5024 48.4761C53.5015 48.5151 53.4922 48.5534 53.4752 48.5884C53.4582 48.6235 53.4338 48.6545 53.4038 48.6794C53.3738 48.7042 53.3388 48.7223 53.3012 48.7325C53.2636 48.7427 53.2242 48.7447 53.1857 48.7383H52.3139C52.1505 48.7383 52.0483 48.6498 52.0688 48.4761L53.6965 35.7058C53.6978 35.6685 53.7066 35.6318 53.7226 35.598C53.7386 35.5643 53.7613 35.5342 53.7894 35.5096C53.8175 35.485 53.8504 35.4665 53.886 35.4551C53.9215 35.4437 53.9591 35.4398 53.9962 35.4436Z" fill="#4D4D4E"/>
<path fill-rule="evenodd" clip-rule="evenodd" d="M93.1244 35.2324C91.9968 35.2066 90.894 35.566 89.9981 36.2514C89.1023 36.9368 88.4669 37.9071 88.1968 39.0022C87.9542 40.0188 87.7734 41.0491 87.6553 42.0875C87.5156 43.1105 87.4337 44.1406 87.4102 45.1728C87.3987 45.6767 87.4889 46.1776 87.6756 46.6457C87.8623 47.1139 88.1415 47.5395 88.4965 47.8972C89.2048 48.5783 90.1753 48.9188 91.4081 48.9188C92.5372 48.9444 93.6412 48.584 94.5377 47.8972C95.4216 47.2178 96.0465 46.2565 96.3085 45.1728C96.5544 44.157 96.7353 43.1264 96.85 42.0875C96.9884 41.0553 97.0691 40.0162 97.0917 38.975C97.1147 38.471 97.031 37.9678 96.8461 37.4984C96.6613 37.0289 96.3794 36.6037 96.019 36.2507C95.2265 35.5424 94.1859 35.1763 93.1244 35.2324ZM95.5866 40.848C95.5048 41.4984 95.4537 41.9139 95.4367 42.0875C95.2733 43.4054 95.1268 44.3487 95.0008 44.9106C94.8312 45.715 94.3899 46.4365 93.751 46.9539C93.1276 47.459 92.3466 47.7289 91.5443 47.7167C91.1792 47.741 90.8131 47.6873 90.4703 47.5593C90.1274 47.4313 89.8158 47.2319 89.5559 46.9743C89.296 46.7166 89.0939 46.4067 88.9629 46.065C88.8319 45.7233 88.7751 45.3577 88.7962 44.9924C88.8039 44.4455 88.8448 43.8996 88.9188 43.3578C89.0005 42.7073 89.0516 42.2953 89.0686 42.1182C89.232 40.8548 89.3785 39.9115 89.5045 39.2985C89.6754 38.4946 90.1164 37.7735 90.7543 37.2553C91.3785 36.7517 92.159 36.4819 92.961 36.4924C93.3261 36.4682 93.6922 36.5218 94.035 36.6498C94.3779 36.7778 94.6895 36.9773 94.9494 37.2349C95.2093 37.4925 95.4114 37.8024 95.5424 38.1441C95.6734 38.4858 95.7302 38.8514 95.7091 39.2168C95.7013 39.7625 95.6603 40.3072 95.5866 40.848Z" fill="#4D4D4E"/>
<path d="M101.216 35.4436H102.084C102.254 35.4436 102.326 35.5355 102.302 35.7058L100.698 48.4761C100.696 48.5133 100.687 48.5497 100.671 48.5832C100.655 48.6167 100.632 48.6466 100.604 48.6711C100.576 48.6956 100.544 48.7142 100.508 48.7257C100.473 48.7373 100.435 48.7416 100.398 48.7383H99.5266C99.3632 48.7383 99.2576 48.66 99.2814 48.4761L100.916 35.7058C100.921 35.6314 100.956 35.5621 101.012 35.513C101.068 35.4638 101.141 35.4389 101.216 35.4436Z" fill="#4D4D4E"/>
<path d="M113.097 36.1962C112.498 35.5696 111.657 35.2597 110.567 35.2597C109.892 35.2525 109.224 35.3919 108.609 35.6683C108.006 35.9438 107.482 36.3651 107.083 36.8943C107.012 36.9624 106.974 36.9454 106.974 36.8398L107.11 35.7058C107.131 35.5457 107.059 35.4436 106.892 35.4436H106.024C105.987 35.4403 105.95 35.4446 105.914 35.4561C105.879 35.4677 105.846 35.4863 105.818 35.5108C105.79 35.5353 105.767 35.5652 105.751 35.5987C105.735 35.6322 105.726 35.6686 105.724 35.7058L104.12 48.4761C104.1 48.643 104.158 48.7383 104.338 48.7383H105.21C105.247 48.7411 105.284 48.7365 105.319 48.7248C105.355 48.713 105.387 48.6944 105.415 48.67C105.443 48.6456 105.466 48.6159 105.482 48.5826C105.498 48.5493 105.508 48.5131 105.51 48.4761L106.678 39.3257C106.844 38.5323 107.265 37.8149 107.877 37.2825C108.474 36.7639 109.241 36.4848 110.032 36.4993C110.374 36.4846 110.715 36.5429 111.033 36.6703C111.351 36.7978 111.637 36.9913 111.874 37.2382C112.352 37.7765 112.596 38.4816 112.556 39.1997C112.559 39.3942 112.55 39.5888 112.528 39.7821L111.415 48.4761C111.407 48.5078 111.406 48.5409 111.414 48.5729C111.421 48.6048 111.435 48.6346 111.456 48.66C111.482 48.6874 111.514 48.7086 111.549 48.7221C111.584 48.7357 111.622 48.7412 111.66 48.7383H112.528C112.565 48.7416 112.603 48.7373 112.638 48.7257C112.673 48.7142 112.706 48.6956 112.734 48.6711C112.762 48.6466 112.785 48.6167 112.801 48.5832C112.817 48.5497 112.826 48.5133 112.828 48.4761L113.945 39.5641C113.982 39.2236 113.999 38.9477 113.999 38.7741C114.027 38.3061 113.961 37.8374 113.806 37.3949C113.651 36.9525 113.41 36.5451 113.097 36.1962Z" fill="#4D4D4E"/>
<path d="M102.707 30.281C102.519 30.1825 102.306 30.142 102.095 30.1646C101.884 30.1872 101.685 30.2719 101.522 30.4079C101.359 30.5439 101.24 30.7252 101.18 30.9288C101.12 31.1323 101.122 31.3491 101.186 31.5516C101.249 31.7541 101.371 31.9333 101.536 32.0664C101.701 32.1996 101.902 32.2808 102.114 32.2997C102.325 32.3186 102.537 32.2744 102.724 32.1727C102.91 32.071 103.062 31.9163 103.16 31.7283C103.292 31.4763 103.318 31.1823 103.233 30.9109C103.148 30.6395 102.959 30.4129 102.707 30.281Z" fill="#4D4D4E"/>
<path d="M78.5899 36.2745C79.4916 35.5755 80.6061 35.2076 81.7467 35.2324C82.8075 35.171 83.8495 35.5322 84.6447 36.237C85.0062 36.5894 85.2891 37.0144 85.4745 37.484C85.66 37.9535 85.7439 38.457 85.7208 38.9614V39.2713C85.7208 39.2921 85.7167 39.3128 85.7086 39.332C85.7005 39.3512 85.6886 39.3687 85.6737 39.3832C85.6588 39.3978 85.6412 39.4093 85.6218 39.417C85.6024 39.4246 85.5816 39.4284 85.5608 39.4279H84.5391C84.5122 39.4279 84.4855 39.4225 84.4606 39.412C84.4358 39.4015 84.4134 39.3861 84.3946 39.3667C84.3759 39.3473 84.3612 39.3243 84.3515 39.2992C84.3418 39.274 84.3373 39.2471 84.3382 39.2202V39.1997C84.3594 38.8341 84.3024 38.4682 84.1713 38.1262C84.0401 37.7843 83.8376 37.4742 83.5774 37.2165C83.3171 36.9588 83.005 36.7595 82.6618 36.6317C82.3185 36.5039 81.952 36.4506 81.5866 36.4754C80.7857 36.4648 80.0063 36.7347 79.3833 37.2382C78.7469 37.7612 78.3103 38.4876 78.1472 39.2951C78.0178 39.9081 77.8747 40.8514 77.7113 42.1148C77.6908 42.2919 77.6296 42.8129 77.5614 43.3544C77.4875 43.8962 77.4466 44.4421 77.4388 44.989C77.4178 45.3543 77.4746 45.7199 77.6056 46.0616C77.7366 46.4033 77.9387 46.7132 78.1986 46.9708C78.4585 47.2285 78.7701 47.4279 79.113 47.5559C79.4558 47.6839 79.8219 47.7375 80.187 47.7133C80.9883 47.7262 81.7685 47.4561 82.3903 46.9505C83.0301 46.4333 83.4725 45.7119 83.6435 44.9072C83.6421 44.8902 83.6421 44.8731 83.6435 44.8561C83.6528 44.8193 83.6744 44.7867 83.7048 44.7638C83.7351 44.7408 83.7724 44.729 83.8104 44.7301H84.8831C84.9015 44.7302 84.9196 44.7344 84.9362 44.7424C84.9527 44.7504 84.9672 44.762 84.9787 44.7764C84.9901 44.7908 84.9982 44.8076 85.0023 44.8255C85.0064 44.8434 85.0064 44.8621 85.0023 44.88C84.9784 44.9821 84.9546 45.0775 84.9308 45.1694C84.6722 46.2537 84.0481 47.2158 83.1634 47.8938C82.2666 48.5801 81.1628 48.9404 80.0338 48.9154C78.801 48.9154 77.8305 48.5749 77.1221 47.8938C76.7652 47.5373 76.4846 47.112 76.2972 46.6436C76.1099 46.1753 76.0198 45.6737 76.0324 45.1694C76.0586 44.1373 76.1404 43.1074 76.2776 42.0841C76.4024 41.0465 76.5843 40.0165 76.8225 38.9988C77.0864 37.9169 77.7094 36.9564 78.5899 36.2745Z" fill="#4D4D4E"/>
<path fill-rule="evenodd" clip-rule="evenodd" d="M72.9609 36.2609C72.168 35.5505 71.126 35.1832 70.0629 35.2393C68.9353 35.2134 67.8325 35.5728 66.9366 36.2582C66.0408 36.9436 65.4054 37.9139 65.1353 39.009C64.8936 40.0258 64.7128 41.0561 64.5938 42.0943C64.4355 43.1153 64.3535 44.1466 64.3486 45.1797C64.3371 45.6835 64.4274 46.1844 64.6141 46.6526C64.8007 47.1207 65.0799 47.5463 65.435 47.904C66.1433 48.5851 67.1138 48.9256 68.3466 48.9256C69.4756 48.9512 70.5796 48.5908 71.4762 47.904C72.3607 47.2252 72.9858 46.2636 73.247 45.1797C73.2708 45.0877 73.2947 44.9924 73.3185 44.8902C73.3226 44.8723 73.3226 44.8537 73.3185 44.8357C73.3144 44.8178 73.3064 44.801 73.2949 44.7866C73.2835 44.7722 73.2689 44.7606 73.2524 44.7526C73.2358 44.7446 73.2177 44.7404 73.1993 44.7404H72.1164C72.0785 44.7398 72.0415 44.7519 72.0113 44.7747C71.9811 44.7975 71.9594 44.8298 71.9495 44.8664V44.9174C71.7799 45.7218 71.3386 46.4433 70.6997 46.9607C70.0717 47.4599 69.2883 47.7227 68.4862 47.7031C68.1211 47.7273 67.755 47.6737 67.4121 47.5457C67.0693 47.4177 66.7576 47.2183 66.4978 46.9606C66.2379 46.703 66.0358 46.3931 65.9048 46.0514C65.7738 45.7097 65.717 45.3441 65.738 44.9787C65.7443 44.5016 65.7772 44.0253 65.8368 43.5519L73.6999 41.117C73.772 41.1013 73.8364 41.0612 73.8823 41.0035C73.9282 40.9458 73.9528 40.874 73.9519 40.8003C73.9996 40.3916 74.0302 39.7003 74.037 38.992C74.0508 38.4878 73.9626 37.986 73.7776 37.5166C73.5927 37.0473 73.3149 36.6202 72.9609 36.2609ZM72.651 39.9353C72.6497 39.9732 72.6365 40.0097 72.6133 40.0396C72.59 40.0696 72.558 40.0915 72.5216 40.1022L66.0037 42.1148V42.0875C66.1671 40.8241 66.3136 39.8808 66.4396 39.2679C66.6104 38.464 67.0515 37.7429 67.6893 37.2246C68.3136 36.7211 69.0941 36.4513 69.896 36.4618C70.2642 36.4471 70.6314 36.5085 70.9747 36.6421C71.3181 36.7756 71.6302 36.9786 71.8916 37.2382C72.6953 38.0249 72.6987 38.866 72.651 39.9353Z" fill="#4D4D4E"/>
<path d="M61.4859 47.2983C61.4474 47.297 61.4092 47.3062 61.3756 47.3251C60.8171 47.5873 59.7512 47.8393 59.1859 47.3625C58.7803 46.9699 58.8649 46.2693 58.9597 45.4842C58.9636 45.452 58.9675 45.4198 58.9714 45.3874L59.9249 37.715H62.6492C62.7268 37.72 62.8037 37.6984 62.8672 37.6537C62.9203 37.599 62.9496 37.5256 62.9489 37.4494L63.0238 36.8432C63.0341 36.6763 62.9625 36.581 62.8059 36.581H60.0816L60.5992 32.3583C60.623 32.2084 60.5822 32.0961 60.3812 32.0961H59.5401C59.5029 32.0923 59.4654 32.0962 59.4299 32.1076C59.3943 32.1189 59.3614 32.1375 59.3333 32.1621C59.3052 32.1867 59.2825 32.2168 59.2665 32.2505C59.2505 32.2843 59.2416 32.3209 59.2404 32.3583L58.859 35.338L58.6956 36.6831L57.5445 46.0344C57.4015 47.2638 57.6569 48.2479 58.6547 48.7043C59.5364 49.0276 60.5065 49.0143 61.379 48.6668C61.4323 48.646 61.479 48.6114 61.5143 48.5665C61.5496 48.5216 61.5723 48.468 61.5799 48.4114L61.6889 47.5294C61.6926 47.491 61.6857 47.4524 61.669 47.4177C61.6523 47.383 61.6264 47.3535 61.5941 47.3325C61.5618 47.3114 61.5244 47.2996 61.4859 47.2983Z" fill="#4D4D4E"/>
</svg>

<svg width="128" height="80" fill="none" xmlns="http://www.w3.org/2000/svg"><path d="M28.075 26a14.078 14.078 0 1 0 0 28.156 14.078 14.078 0 0 0 0-28.156zm.228 14.541-1.464 4.941h7.832a.402.402 0 0 1 .385.515l-.68 2.346a.538.538 0 0 1-.518.388H21.894l2.023-6.831-2.237.681.494-1.597 2.24-.681 2.84-9.597a.534.534 0 0 1 .515-.391h3.03a.4.4 0 0 1 .389.51l-2.384 8.116 2.237-.681-.48 1.624-2.258.657z" fill="#A5A8A9"/><path d="M54.832 30.16a1.073 1.073 0 1 1 .211 2.136 1.073 1.073 0 0 1-.211-2.136zM49.416 30.274h.879c.17 0 .272.075.245.273l-2.285 17.93a.263.263 0 0 1-.3.261h-.872c-.18 0-.238-.092-.218-.262L49.12 30.54a.28.28 0 0 1 .296-.266zM53.996 35.444h.869c.19 0 .248.091.241.269l-1.604 12.763a.271.271 0 0 1-.316.262h-.872c-.163 0-.266-.088-.245-.262l1.627-12.77a.274.274 0 0 1 .19-.25.27.27 0 0 1 .11-.012z" fill="#4D4D4E"/><path fill-rule="evenodd" clip-rule="evenodd" d="M93.124 35.232a4.959 4.959 0 0 0-4.927 3.77 25.901 25.901 0 0 0-.542 3.085 27.415 27.415 0 0 0-.245 3.086 3.745 3.745 0 0 0 1.087 2.724c.708.681 1.678 1.022 2.911 1.022a4.961 4.961 0 0 0 3.13-1.022 4.884 4.884 0 0 0 1.77-2.724c.246-1.016.427-2.047.542-3.086.138-1.032.22-2.07.242-3.112a3.583 3.583 0 0 0-1.073-2.724 4.025 4.025 0 0 0-2.895-1.019zm2.463 5.616c-.082.65-.133 1.066-.15 1.24-.164 1.317-.31 2.26-.436 2.823a3.58 3.58 0 0 1-1.25 2.043 3.422 3.422 0 0 1-2.207.763 2.58 2.58 0 0 1-2.748-2.725c.008-.546.049-1.092.123-1.634.082-.65.133-1.063.15-1.24.163-1.263.31-2.207.435-2.82a3.596 3.596 0 0 1 1.25-2.043 3.443 3.443 0 0 1 2.207-.763 2.582 2.582 0 0 1 2.748 2.725 13.51 13.51 0 0 1-.122 1.631z" fill="#4D4D4E"/><path d="M101.216 35.444h.868c.17 0 .242.091.218.262l-1.604 12.77a.284.284 0 0 1-.094.195.27.27 0 0 1-.206.067h-.871c-.164 0-.27-.078-.246-.262l1.635-12.77a.282.282 0 0 1 .3-.262zM113.097 36.196c-.599-.626-1.44-.936-2.53-.936a4.655 4.655 0 0 0-1.958.408 3.984 3.984 0 0 0-1.526 1.226c-.071.068-.109.051-.109-.054l.136-1.134c.021-.16-.051-.262-.218-.262h-.868a.278.278 0 0 0-.273.155.284.284 0 0 0-.027.107l-1.604 12.77c-.02.167.038.262.218.262h.872a.277.277 0 0 0 .272-.155.282.282 0 0 0 .028-.107l1.168-9.15a3.717 3.717 0 0 1 1.199-2.044 3.196 3.196 0 0 1 2.155-.783 2.412 2.412 0 0 1 1.842.74c.478.538.722 1.243.682 1.96.003.195-.006.39-.028.583l-1.113 8.694a.198.198 0 0 0-.001.097.205.205 0 0 0 .042.087.255.255 0 0 0 .204.078h.868a.275.275 0 0 0 .3-.262l1.117-8.912c.037-.34.054-.616.054-.79a3.534 3.534 0 0 0-.902-2.578zM102.707 30.281a1.073 1.073 0 1 0-.996 1.9 1.073 1.073 0 0 0 .996-1.9zM78.59 36.275a4.976 4.976 0 0 1 3.157-1.043 4.02 4.02 0 0 1 2.898 1.005 3.575 3.575 0 0 1 1.076 2.724v.31a.156.156 0 0 1-.16.157h-1.022a.202.202 0 0 1-.188-.129.201.201 0 0 1-.013-.079v-.02a2.582 2.582 0 0 0-2.751-2.725c-.801-.01-1.58.26-2.204.763a3.58 3.58 0 0 0-1.236 2.057c-.13.613-.272 1.556-.436 2.82-.02.177-.081.698-.15 1.24a13.522 13.522 0 0 0-.122 1.634 2.582 2.582 0 0 0 2.748 2.724 3.406 3.406 0 0 0 2.203-.763 3.586 3.586 0 0 0 1.254-2.043.311.311 0 0 1 0-.05.167.167 0 0 1 .166-.127h1.073a.124.124 0 0 1 .12.096.122.122 0 0 1 0 .054 12.6 12.6 0 0 1-.072.29 4.85 4.85 0 0 1-1.768 2.724c-.896.686-2 1.046-3.13 1.021-1.232 0-2.203-.34-2.91-1.021a3.72 3.72 0 0 1-1.09-2.725c.026-1.032.107-2.062.245-3.085A28.44 28.44 0 0 1 76.822 39a4.92 4.92 0 0 1 1.768-2.724z" fill="#4D4D4E"/><path fill-rule="evenodd" clip-rule="evenodd" d="M72.96 36.26a4.025 4.025 0 0 0-2.897-1.02 4.958 4.958 0 0 0-4.928 3.769 26.284 26.284 0 0 0-.541 3.085 20.781 20.781 0 0 0-.245 3.086 3.746 3.746 0 0 0 1.086 2.724c.708.681 1.679 1.022 2.912 1.022a4.962 4.962 0 0 0 3.13-1.022 4.873 4.873 0 0 0 1.77-2.724c.024-.092.048-.188.072-.29a.122.122 0 0 0-.12-.15h-1.083a.17.17 0 0 0-.166.126v.051a3.58 3.58 0 0 1-1.25 2.044c-.628.499-1.412.762-2.214.742a2.583 2.583 0 0 1-2.748-2.724c.006-.477.04-.954.099-1.427l7.863-2.435a.32.32 0 0 0 .252-.317c.048-.408.078-1.1.085-1.808a3.744 3.744 0 0 0-1.076-2.731zm-.309 3.675a.18.18 0 0 1-.13.167l-6.517 2.013v-.028c.163-1.263.31-2.206.436-2.82a3.596 3.596 0 0 1 1.25-2.042 3.443 3.443 0 0 1 2.206-.763 2.68 2.68 0 0 1 1.996.776c.803.787.807 1.628.759 2.697z" fill="#4D4D4E"/><path d="M61.486 47.298a.21.21 0 0 0-.11.027c-.559.262-1.625.514-2.19.037-.406-.392-.321-1.093-.226-1.878l.011-.097.954-7.672h2.724a.34.34 0 0 0 .218-.061.29.29 0 0 0 .082-.205l.075-.606c.01-.167-.062-.262-.218-.262h-2.724l.517-4.223c.024-.15-.017-.262-.218-.262h-.84a.27.27 0 0 0-.274.155.272.272 0 0 0-.027.107l-.381 2.98-.163 1.345-1.151 9.351c-.144 1.23.112 2.214 1.11 2.67.881.324 1.852.31 2.724-.037a.32.32 0 0 0 .2-.256l.11-.882a.21.21 0 0 0-.203-.23z" fill="#4D4D4E"/></svg>
